assets/img/icons/desktop.svg

<svg width="37" height="34" viewBox="0 0 37 34" fill="none" xmlns="http://www.w3.org/2000/svg">
<path d="M34.3176 0.719482H2.05319C1.50883 0.720085 0.986946 0.937033 0.602029 1.32273C0.217112 1.70842 0.00060168 2.23136 0 2.77682V25.7014C0.00060168 26.2469 0.217112 26.7698 0.602029 27.1555C0.986946 27.5412 1.50883 27.7581 2.05319 27.7587H13.8517L13.0693 30.11H11.7325C11.5769 30.11 11.4277 30.1719 11.3177 30.2822C11.2077 30.3924 11.1459 30.5419 11.1459 30.6978V31.8734H7.0395C6.88392 31.8734 6.73471 31.9353 6.62469 32.0456C6.51468 32.1558 6.45288 32.3053 6.45288 32.4612C6.45288 32.6171 6.51468 32.7666 6.62469 32.8769C6.73471 32.9871 6.88392 33.049 7.0395 33.049H29.3313C29.4868 33.049 29.636 32.9871 29.7461 32.8769C29.8561 32.7666 29.9179 32.6171 29.9179 32.4612C29.9179 32.3053 29.8561 32.1558 29.7461 32.0456C29.636 31.9353 29.4868 31.8734 29.3313 31.8734H25.2249V30.6978C25.2249 30.5419 25.1631 30.3924 25.0531 30.2822C24.943 30.1719 24.7938 30.11 24.6383 30.11H23.3015L22.5191 27.7587H34.3176C34.8619 27.7581 35.3838 27.5412 35.7687 27.1555C36.1536 26.7698 36.3702 26.2469 36.3708 25.7014V2.77682C36.3702 2.23136 36.1536 1.70842 35.7687 1.32273C35.3838 0.937033 34.8619 0.720085 34.3176 0.719482ZM24.0516 31.2856V31.8734H12.3191V31.2856H24.0516ZM14.3063 30.11L15.0887 27.7587H21.282L22.0644 30.11H14.3063ZM35.1975 25.7014C35.1973 25.9352 35.1045 26.1594 34.9396 26.3247C34.7746 26.49 34.5509 26.5829 34.3176 26.5831H2.05319C1.81987 26.5829 1.59617 26.49 1.43119 26.3247C1.26621 26.1594 1.17344 25.9352 1.17325 25.7014V23.0563H35.1975V25.7014ZM35.1975 21.8806H1.17325V2.77682C1.17344 2.54303 1.26621 2.31888 1.43119 2.15357C1.59617 1.98825 1.81987 1.8953 2.05319 1.8951H34.3176C34.5509 1.8953 34.7746 1.98825 34.9396 2.15357C35.1045 2.31888 35.1973 2.54303 35.1975 2.77682V21.8806Z" fill="#C6C6C6"/>
</svg>

<svg width="37" height="34" fill="none" xmlns="http://www.w3.org/2000/svg"><path d="M34.318.72H2.053A2.053 2.053 0 000 2.776V25.7a2.062 2.062 0 002.053 2.058h11.799l-.783 2.351h-1.337a.586.586 0 00-.586.588v1.175H7.039a.586.586 0 00-.586.588.589.589 0 00.587.588h22.29a.586.586 0 00.415-1.003.586.586 0 00-.415-.173h-4.106v-1.175a.588.588 0 00-.587-.588H23.3l-.782-2.351h11.799a2.062 2.062 0 002.053-2.057V2.776A2.062 2.062 0 0034.318.719zM24.052 31.285v.587H12.319v-.587h11.733zm-9.746-1.176l.783-2.351h6.193l.782 2.351h-7.758zM35.198 25.7a.884.884 0 01-.88.882H2.053a.88.88 0 01-.88-.882v-2.645h34.024V25.7zm0-3.82H1.172V2.777a.883.883 0 01.88-.882h32.265a.88.88 0 01.88.882V21.88z" fill="#C6C6C6"/></svg>
